network-strength-off-outline.svg

<svg fill="currentColor" viewBox="0 0 24 24"><path d="m21 1-8.6 8.6 1.45 1.45L19 5.83v10.36l2 2M4.77 4.5 3.5 5.77l6.36 6.36L1 21h17.73l2 2L22 21.73M11.33 13.6l5.4 5.4H6"/></svg>

<svg  viewBox="0 0 24 24" fill="currentColor"><path  d="M21,1L12.4,9.6L13.85,11.05L19,5.83V16.19L21,18.19M4.77,4.5L3.5,5.77L9.86,12.13L1,21H18.73L20.73,23L22,21.73M11.33,13.6L16.73,19H6"/></svg>
